icons/lines/colors-square-one.svg

<svg xmlns="http://www.w3.org/2000/svg" width="24" height="24" viewBox="0 0 24 24" fill="none" stroke="currentColor" stroke-width="2" stroke-linecap="round" stroke-linejoin="round" >
  <path d="M13.2 14.4C13.2 15.46 12.74 16.42 12 17.08C11.36 17.66 10.52 18 9.59998 18C7.60998 18 6 16.39 6 14.4C6 12.74 7.13002 11.34 8.65002 10.93C9.06002 11.97 9.94999 12.78 11.05 13.08C11.35 13.16 11.67 13.21 12 13.21C12.33 13.21 12.65 13.17 12.95 13.08C13.11 13.48 13.2 13.93 13.2 14.4Z"/>
  <path d="M15.5999 9.6C15.5999 10.07 15.5099 10.52 15.3499 10.93C14.9399 11.97 14.0499 12.78 12.9499 13.08C12.6499 13.16 12.3299 13.21 11.9999 13.21C11.6699 13.21 11.3499 13.17 11.0499 13.08C9.94987 12.78 9.0599 11.98 8.6499 10.93C8.4899 10.52 8.3999 10.07 8.3999 9.6C8.3999 7.61 10.0099 6 11.9999 6C13.9899 6 15.5999 7.61 15.5999 9.6Z"/>
  <path d="M18 14.4C18 16.39 16.39 18 14.4 18C13.48 18 12.64 17.65 12 17.08C12.74 16.43 13.2 15.47 13.2 14.4C13.2 13.93 13.11 13.48 12.95 13.07C14.05 12.77 14.94 11.97 15.35 10.92C16.87 11.34 18 12.74 18 14.4Z"/>
  <path d="M9 22H15C20 22 22 20 22 15V9C22 4 20 2 15 2H9C4 2 2 4 2 9V15C2 20 4 22 9 22Z"/>
  </svg>

<svg xmlns="http://www.w3.org/2000/svg" width="24" height="24" viewBox="0 0 24 24" fill="none" stroke="currentColor" stroke-width="2" stroke-linecap="round" stroke-linejoin="round">
  <path d="M13.2 14.4a3.58 3.58 0 1 1-4.55-3.47A3.61 3.61 0 0 0 12 13.21a3.3 3.3 0 0 0 .95-.13 3.6 3.6 0 0 1 .25 1.32" />
  <path d="M15 22c5 0 7-2 7-7V9c0-5-2-7-7-7H9C4 2 2 4 2 9v6c0 5 2 7 7 7z" />
  <path d="M15.6 9.6a3.7 3.7 0 0 1-3.6 3.61 3.3 3.3 0 0 1-.95-.13 3.59 3.59 0 0 1-2.4-2.15A3.7 3.7 0 0 1 8.4 9.6a1 1 0 0 1 7.2 0" />
  <path d="M18 14.4a3.6 3.6 0 0 1-6 2.68 3.55 3.55 0 0 0 1.2-2.68 3.7 3.7 0 0 0-.25-1.33 3.59 3.59 0 0 0 2.4-2.15A3.62 3.62 0 0 1 18 14.4" />
</svg>
